X: 04091
T: TOLMAN'S REEL
C: Bob McQuillen 24 Mar'80
B: Bob's Note Book 04 #91
R: reel
Z: 2020 John Chambers <jc:trillian.mit.edu>
M: C
L: 1/8
K: F
AB \
| cAfc AF fa | gfed cAfc | AFAc fcfa | gfga g2 AB |
| cAfc Acfa  | bagf dgfd | cAfc dbge | f2a2 f2 :|
|: AB \
| cAdA cfaf | cAdA  c2AB | cAdA cfaf | gaba gfed |
| cAdA cfaf | cAdA  cfaf | fdfb afcb | agfe f2 :|
%%begintext align
%% I have the highest regard for Newt Tolman
%% of Nelson, N.H. Generations yet to come
%% will still hear happy music from his silver
%% flute ringing out across the Monadnock Region.
%%endtext
